X: 39585
T: Teelin, The
R: reel
M: 4/4
K: Amixolydian
|:A2eg fdeA|(3Bcd ef gfge|a2eg fdfa|gedg eAA2:|
|:a2eg fdgf|eAcA (3Bcd eg|a2eg fdfa|gedB eAA2:|

